X:1
T:Title
%%score { ( 1 3 ) | 2 }
L:1/8
M:4/4
K:A
V:1 treble nm="Grand Piano"
V:3 treble 
V:2 bass 
V:1
 z4 z2[Q:1/4=94] [CE]>[CE] | [Ec]2 [Ec]2 [Ec]2 [EA]2 | [FB]>[FA] [EG]>[DF] [CE]2 [DF]>[DG] | %3
 [CA]2 [CA]2 [Ee]2 [Ec]2 | c>B B>^A B2 E>E | [Ec]2 [Ec]2 [Ec]2 [EA]2 | %6
 [FB]>[FA] [EG]>[DF] [CE]3 [CE] | [EA]>B c>d [Ee]>[Ee] [Ee]>[Fd] | [Ec]2 [DB]2 [CA]4 | %9
 [DB]2 [Ge]2 [Ge]>[Fd] c>B | A2 B2 c4 | z4 ^d2 c2 |[M:9/8] e6- e z z |[M:4/4] z4 A4 | %14
 [FA]>[GB] [FA]>[DF] [CE]3 [CE] | [EA]>B c>d [Ee]>[Ee] [Ee]>[Fd] |[M:7/8] [Ec]2 [DB]2 [CA]3 |] %17
V:2
 z4 z2 [A,,A,]>[A,,A,] | [A,,A,]2 [A,,A,]2 [A,,A,]2 [C,A,]2 | %2
 [D,D]>[D,D] [D,D]>[D,A,] [A,,A,]2 [A,,A,]>[A,,A,] | [A,,A,]2 [A,,A,]2 [C,A,]2 [A,,A,]2 | %4
 [E,A,E]>[E,G,E] [E,G,E]>[E,=G,E] [E,^G,E]2 [E,G,]>[E,G,] | [A,,A,]2 [A,,A,]2 [A,,A,]2 [C,A,]2 | %6
 [D,D]>[D,D] [D,D]>[D,A,] [A,,A,]3 [A,,A,] | %7
 [C,A,]>[E,G,E] [A,E]>[A,B,E] [A,C]>[A,C] [C,A,]>[D,A,] | [E,A,]2 [E,G,]2 [A,,A,]4 | %9
 [E,G,]2 [E,B,]2 [E,B,]>[E,G,] [E,G,E]>[E,G,D] | [F,A,C]2 [E,G,E]2 [A,E]4 | %11
 [B,,G,]2 [B,,G,]2 [B,,B,]2 [B,,B,]2 |[M:9/8] [E,B,]2 [E,C]- [E,C] [E,D]2- [E,D] [E,G,]2 | %13
[M:4/4] [A,,A,]>[A,,A,] [A,,A,]>[A,,A,] [A,,A,]2 C,2 | [D,D]>[D,D] [D,D]>[D,A,] [A,,A,]3 [A,,A,] | %15
 [C,A,]>[E,G,E] [A,E]>[A,B,E] [A,C]>[A,C] [C,A,]>[D,A,] |[M:7/8] [E,A,]2 [E,G,]2 [A,,A,]3 |] %17
V:3
 x8 | x8 | x8 | x8 | x8 | x8 | x8 | x8 | x8 | x8 | x8 | [EB]2 [EB]2 A->[AB] A->[A^d] | %12
[M:9/8] G2 A- A B2- B [Fd]2 |[M:4/4] [Ec]>[Fd] [Ec]>[DB] C2 [E=G]2 | x8 | x8 |[M:7/8] x7 |] %17

